teams/dark/138.svg

<svg xmlns="http://www.w3.org/2000/svg" viewBox="0 0 300 300"><title>St Louis Cardinals cap on dark logo</title><path fill="#fff" d="M238.57 253.48v5.02h-1.17v-5.02h-1.82v-.95h4.81v.95Zm7.96-.94h1.67v5.97h-1.08v-4.65h-.03l-1.78 4.65h-.81l-1.78-4.65h-.03v4.65h-1.09v-5.97h1.68l1.64 4.23Zm-151.48 7.08c-3.98 0-7.22-3.24-7.22-7.22v-14.48c0-3.3 2.36-6.08 5.48-6.47.82-.1 1.71-.15 2.65-.15 4.02 0 4.45-1.49 4.45-2.8v-18c-4.37-1.91-7.82-3.53-10.1-4.64-1.36-.66-2.54-1.25-3.59-1.78-4.25-2.14-5.57-2.81-8.9-2.99-1.73.02-3.81.13-6.72.36q-.345.03-.69.03c-2.24 0-4.32-.88-5.73-2.4-1.2-1.3-1.83-2.95-1.79-4.68-.03-1.75.62-3.44 1.86-4.83 2.08-2.32 3.91-4.32 5.55-6.11 1.81-2.05 3.43-3.86 4.86-5.46l1.97-2.21a7.13 7.13 0 0 1 5.34-2.39h.29c1.31 0 2.6.36 3.71 1.04 1.51.91 3.2 1.87 5.29 3.02 2.72 1.41 5.61 2.81 8.63 4.17v-22.54c-21.95-4.82-37.51-23.64-37.51-46.08s15.88-42.19 37.51-47.23v-3.99c0-1.9-1.55-3.45-3.45-3.45h-1.91c-3.98 0-7.22-3.24-7.22-7.22v-8.8c0-3.98 3.24-7.22 7.22-7.22h39.15c3.98 0 7.22 3.24 7.22 7.22v8.8c0 3.98-3.24 7.22-7.22 7.22h-1.95c-1.88 0-3.41 1.53-3.41 3.41v2.6c27.34.17 53.27 5.95 63.25 8.46 1.47.37 2.74.71 3.88 1.01 3.19.85 4.94 1.32 6.83 1.32s4.53-.49 9.19-1.74c.74-.2 1.5-.3 2.24-.3 2.7 0 5.07 1.31 6.33 3.5 1.22 2.12 1.18 4.71-.12 6.94-3.43 5.91-6 10.17-8.07 13.59l-1.57 2.61a7.2 7.2 0 0 1-6.14 3.47c-.81 0-1.61-.14-2.37-.4-23.39-8.19-52.9-11.26-73.45-11.43v40.89h26.37v-4.28c-5.36.4-8.35 1.6-8.38 1.61l-.21.09-.26.08c-.78.24-1.55.36-2.3.36-1.74 0-3.36-.67-4.56-1.87-2.13-2.15-2.11-5.07-2.1-6.47l-.06-10.84.02-.23c.29-3.39 3.03-5.95 6.38-5.95l49.76.03c3.33 0 6.19 2.67 6.38 5.96l.2 11.06c.04 1.41.12 4.34-1.99 6.51-1.18 1.21-2.77 1.87-4.5 1.87q-1.275 0-2.61-.48c-.63-.19-4.18-1.2-8.71-1.65v4.39c33.08 2.31 53.35 23.78 53.35 43.38 0 30.07-25.71 48.75-67.1 48.75-4.98 0-10.14-.28-15.34-.83-8.05-.86-15.61-2.19-24.35-4.35 0 0-.02 9.12 0 9.12 0 2.62 1.29 2.62 4.05 2.7h71.03c2.22 0 9.99-.55 17.08-7.64a7.2 7.2 0 0 1 5.13-2.13c1.94 0 3.93.84 5.29 2.32l10.06 10.9c2.63 2.85 2.54 7.25-.22 10.02-10.03 10.07-22.24 14.96-37.33 14.96H95.04Zm33.78-67.82c13.67 3.63 27.16 5.54 39.21 5.54 24.47 0 40.28-7.81 40.28-19.91s-15.16-16.61-26.05-17.66v9.04l2.1 4.72c.9 2.01.73 4.31-.47 6.15a6.42 6.42 0 0 1-5.42 2.95h-19.26c-2.15 0-4.15-1.07-5.35-2.85a6.44 6.44 0 0 1-.63-6.03l1.94-4.78v-9.45h-26.36v32.28ZM100.41 94c-6.58 3.66-10.83 10.43-10.83 17.96 0 8.75 4.19 15.82 10.83 18.99Z"/><path fill="#be0a14" d="m237.75 238.07-10.05-10.89c-.84-.91-2.25-.92-3.12-.04-7.03 7.04-15.22 9.13-20.66 9.13h-71.03c-4.78 0-9.11-.37-9.11-5.4v-17.95s.03-.06.07-.05c10.75 2.91 19.69 4.75 29.87 5.83 39.97 4.25 76.85-8.1 76.85-42.89 0-18.49-21.35-37.94-52.73-38.51-.34 0-.62-.28-.62-.62v-13.26c0-.35.28-.63.63-.63 7.91-.06 14.77 2.12 14.77 2.12 2.78 1.09 2.4-2.23 2.4-3.33l-.18-10.54c-.04-.71-.78-1.2-1.34-1.2l-49.75-.03c-.56 0-1.26.39-1.34 1.32l.06 10.45c0 1.25-.18 4.13 2.4 3.33 0 0 5.31-2.29 14.78-2.12.34 0 .63.29.63.63v13.25c0 .35-.28.63-.63.63h-35.22c-.35 0-.63-.28-.63-.63V86.94c0-.34.27-.63.61-.63 18.62-.26 52.64 2.28 79.56 11.71.95.33 1.99-.04 2.5-.9 2.3-3.84 5.27-8.67 9.6-16.14 1.03-1.77-.58-3.3-2.77-2.71-11.72 3.15-12.11 2.02-22.44-.57-11.78-2.96-39.12-8.76-66.43-8.29-.35 0-.64-.28-.64-.63v-7.05c0-4.68 3.79-8.47 8.47-8.47h1.95c1.19 0 2.16-.97 2.16-2.16v-8.8c0-1.19-.97-2.16-2.16-2.16H95.06c-1.19 0-2.16.97-2.16 2.16v8.8c0 1.19.97 2.16 2.16 2.16h1.91c4.7 0 8.51 3.81 8.51 8.51v7.65c0 .31-.23.57-.53.62-20.9 3.13-36.98 21.19-36.98 42.95s16.08 38.81 36.97 41.76c.31.04.54.3.54.62v33.91c-5.51-2.24-10.94-4.71-16.12-7.4-1.86-1.02-3.71-2.06-5.49-3.13-.38-.23-.8-.32-1.21-.3-.64-.05-1.28.18-1.73.69-1.88 2.11-4.09 4.57-6.88 7.73-1.63 1.78-3.45 3.77-5.51 6.07-.43.48-.6.99-.56 1.45-.1 1.15 1.06 2.14 2.75 2.01 2.87-.22 5.19-.35 7.21-.37 5.55.27 7.45 1.81 14.6 5.29 3.18 1.55 7.61 3.6 12.95 5.86v23.45c0 6.73-8.33 5.46-11.54 5.86-.65.08-1.04.79-1.04 1.45v14.48c0 1.19.97 2.16 2.16 2.16h108.86c13.8 0 24.83-4.52 33.75-13.47.83-.83.88-2.16.08-3.02Zm-113.97-82.98c0-.35.28-.63.63-.63h35.22c.35 0 .63.28.63.63v13.82c0 .67-.13 1.34-.38 1.96l-1.94 4.78c-.37.92.3 1.92 1.29 1.92h19.26c1.01 0 1.69-1.04 1.27-1.97l-2.09-4.65c-.3-.67-.46-1.4-.46-2.14V155.1c0-.35.28-.64.63-.63 12.75.15 35.53 5.03 35.53 22.97 0 23.77-41.09 32.12-89.51 18.25a.14.14 0 0 1-.1-.13V155.1Zm-19.04-17.59c-12.46-1.92-20.21-12.64-20.21-25.54 0-12.03 8.59-22.15 20.16-25.03.4-.1.78.21.78.62v49.32c0 .39-.35.69-.73.63"/></svg>

<svg width="300" height="300" viewBox="0 0 300 300" fill="none" xmlns="http://www.w3.org/2000/svg">
<path d="M95.05 259.62C91.07 259.62 87.83 256.38 87.83 252.4V237.92C87.83 234.62 90.19 231.84 93.31 231.45C94.13 231.35 95.02 231.3 95.96 231.3C99.98 231.3 100.41 229.81 100.41 228.5V210.5C96.04 208.59 92.59 206.97 90.31 205.86C88.95 205.2 87.77 204.61 86.72 204.08C82.47 201.94 81.15 201.27 77.82 201.09C76.09 201.11 74.01 201.22 71.1 201.45C70.87 201.47 70.64 201.48 70.41 201.48C68.17 201.48 66.09 200.6 64.68 199.08C63.48 197.78 62.85 196.13 62.89 194.4C62.86 192.65 63.51 190.96 64.75 189.57C66.83 187.25 68.66 185.25 70.3 183.46C72.11 181.41 73.73 179.6 75.16 178L77.13 175.79C77.8004 175.037 78.6231 174.434 79.5436 174.022C80.4641 173.61 81.4615 173.398 82.47 173.4H82.76C84.07 173.4 85.36 173.76 86.47 174.44C87.98 175.35 89.67 176.31 91.76 177.46C94.48 178.87 97.37 180.27 100.39 181.63V159.09C78.44 154.27 62.88 135.45 62.88 113.01C62.88 90.57 78.76 70.82 100.39 65.78V61.79C100.39 59.89 98.84 58.34 96.94 58.34H95.03C91.05 58.34 87.81 55.1 87.81 51.12V42.32C87.81 38.34 91.05 35.1 95.03 35.1H134.18C138.16 35.1 141.4 38.34 141.4 42.32V51.12C141.4 55.1 138.16 58.34 134.18 58.34H132.23C130.35 58.34 128.82 59.87 128.82 61.75V64.35C156.16 64.52 182.09 70.3 192.07 72.81C193.54 73.18 194.81 73.52 195.95 73.82C199.14 74.67 200.89 75.14 202.78 75.14C204.67 75.14 207.31 74.65 211.97 73.4C212.71 73.2 213.47 73.1 214.21 73.1C216.91 73.1 219.28 74.41 220.54 76.6C221.76 78.72 221.72 81.31 220.42 83.54C216.99 89.45 214.42 93.71 212.35 97.13L210.78 99.74C210.14 100.796 209.239 101.671 208.164 102.278C207.089 102.886 205.875 103.207 204.64 103.21C203.83 103.21 203.03 103.07 202.27 102.81C178.88 94.62 149.37 91.55 128.82 91.38V132.27H155.19V127.99C149.83 128.39 146.84 129.59 146.81 129.6L146.6 129.69L146.34 129.77C145.56 130.01 144.79 130.13 144.04 130.13C142.3 130.13 140.68 129.46 139.48 128.26C137.35 126.11 137.37 123.19 137.38 121.79L137.32 110.95L137.34 110.72C137.63 107.33 140.37 104.77 143.72 104.77L193.48 104.8C196.81 104.8 199.67 107.47 199.86 110.76L200.06 121.82C200.1 123.23 200.18 126.16 198.07 128.33C196.89 129.54 195.3 130.2 193.57 130.2C192.72 130.2 191.85 130.04 190.96 129.72C190.33 129.53 186.78 128.52 182.25 128.07V132.46C215.33 134.77 235.6 156.24 235.6 175.84C235.6 205.91 209.89 224.59 168.5 224.59C163.52 224.59 158.36 224.31 153.16 223.76C145.11 222.9 137.55 221.57 128.81 219.41C128.81 219.41 128.79 228.53 128.81 228.53C128.81 231.15 130.1 231.15 132.86 231.23H203.89C206.11 231.23 213.88 230.68 220.97 223.59C221.641 222.913 222.441 222.376 223.321 222.01C224.202 221.645 225.146 221.458 226.1 221.46C228.04 221.46 230.03 222.3 231.39 223.78L241.45 234.68C244.08 237.53 243.99 241.93 241.23 244.7C231.2 254.77 218.99 259.66 203.9 259.66H95.04L95.05 259.62ZM128.83 191.8C142.5 195.43 155.99 197.34 168.04 197.34C192.51 197.34 208.32 189.53 208.32 177.43C208.32 165.33 193.16 160.82 182.27 159.77V168.81L184.37 173.53C185.27 175.54 185.1 177.84 183.9 179.68C183.317 180.587 182.515 181.333 181.568 181.849C180.62 182.364 179.558 182.633 178.48 182.63H159.22C157.07 182.63 155.07 181.56 153.87 179.78C153.278 178.904 152.911 177.895 152.801 176.844C152.691 175.792 152.842 174.73 153.24 173.75L155.18 168.97V159.52H128.82V191.8H128.83ZM100.41 94C93.83 97.66 89.58 104.43 89.58 111.96C89.58 120.71 93.77 127.78 100.41 130.95V94Z" fill="white"/>
<path d="M237.75 238.07L227.7 227.18C226.86 226.27 225.45 226.26 224.58 227.14C217.55 234.18 209.36 236.27 203.92 236.27H132.89C128.11 236.27 123.78 235.9 123.78 230.87V212.92C123.78 212.92 123.81 212.86 123.85 212.87C134.6 215.78 143.54 217.62 153.72 218.7C193.69 222.95 230.57 210.6 230.57 175.81C230.57 157.32 209.22 137.87 177.84 137.3C177.5 137.3 177.22 137.02 177.22 136.68V123.42C177.22 123.07 177.5 122.79 177.85 122.79C185.76 122.73 192.62 124.91 192.62 124.91C195.4 126 195.02 122.68 195.02 121.58L194.84 111.04C194.8 110.33 194.06 109.84 193.5 109.84L143.75 109.81C143.19 109.81 142.49 110.2 142.41 111.13L142.47 121.58C142.47 122.83 142.29 125.71 144.87 124.91C144.87 124.91 150.18 122.62 159.65 122.79C159.99 122.79 160.28 123.08 160.28 123.42V136.67C160.28 137.02 160 137.3 159.65 137.3H124.43C124.08 137.3 123.8 137.02 123.8 136.67V86.94C123.8 86.6 124.07 86.31 124.41 86.31C143.03 86.05 177.05 88.59 203.97 98.02C204.92 98.35 205.96 97.98 206.47 97.12C208.77 93.28 211.74 88.45 216.07 80.98C217.1 79.21 215.49 77.68 213.3 78.27C201.58 81.42 201.19 80.29 190.86 77.7C179.08 74.74 151.74 68.94 124.43 69.41C124.08 69.41 123.79 69.13 123.79 68.78V61.73C123.79 57.05 127.58 53.26 132.26 53.26H134.21C135.4 53.26 136.37 52.29 136.37 51.1V42.3C136.37 41.11 135.4 40.14 134.21 40.14H95.06C93.87 40.14 92.9 41.11 92.9 42.3V51.1C92.9 52.29 93.87 53.26 95.06 53.26H96.97C101.67 53.26 105.48 57.07 105.48 61.77V69.42C105.48 69.73 105.25 69.99 104.95 70.04C84.05 73.17 67.97 91.23 67.97 112.99C67.97 134.75 84.05 151.8 104.94 154.75C105.25 154.79 105.48 155.05 105.48 155.37V189.28C99.97 187.04 94.54 184.57 89.36 181.88C87.5 180.86 85.65 179.82 83.87 178.75C83.49 178.52 83.07 178.43 82.66 178.45C82.02 178.4 81.38 178.63 80.93 179.14C79.05 181.25 76.84 183.71 74.05 186.87C72.42 188.65 70.6 190.64 68.54 192.94C68.11 193.42 67.94 193.93 67.98 194.39C67.88 195.54 69.04 196.53 70.73 196.4C73.6 196.18 75.92 196.05 77.94 196.03C83.49 196.3 85.39 197.84 92.54 201.32C95.72 202.87 100.15 204.92 105.49 207.18V230.63C105.49 237.36 97.16 236.09 93.95 236.49C93.3 236.57 92.91 237.28 92.91 237.94V252.42C92.91 253.61 93.88 254.58 95.07 254.58H203.93C217.73 254.58 228.76 250.06 237.68 241.11C238.51 240.28 238.56 238.95 237.76 238.09L237.75 238.07ZM123.78 155.09C123.78 154.74 124.06 154.46 124.41 154.46H159.63C159.98 154.46 160.26 154.74 160.26 155.09V168.91C160.26 169.58 160.13 170.25 159.88 170.87L157.94 175.65C157.57 176.57 158.24 177.57 159.23 177.57H178.49C179.5 177.57 180.18 176.53 179.76 175.6L177.67 170.95C177.37 170.28 177.21 169.55 177.21 168.81V155.1C177.21 154.75 177.49 154.46 177.84 154.47C190.59 154.62 213.37 159.5 213.37 177.44C213.37 201.21 172.28 209.56 123.86 195.69C123.832 195.682 123.807 195.665 123.789 195.641C123.771 195.618 123.761 195.589 123.76 195.56V155.1L123.78 155.09ZM104.74 137.5C92.28 135.58 84.53 124.86 84.53 111.96C84.53 99.93 93.12 89.81 104.69 86.93C105.09 86.83 105.47 87.14 105.47 87.55V136.87C105.47 137.26 105.12 137.56 104.74 137.5Z" fill="#BE0A14"/>
</svg>
